!!!COM: Charles Gounod
!!!CNT: Francais
!!!TXO: Francais
!!!OTL: Chant d'automne
!!!LYR: anonymous
!!!ENC: Jacob Pegg
!!!YOR: Romantic French Song 1830-1870 -David Tunley, ed.,
!!!YOR: New York: Garland Publishing, Inc., 1995, Vol. 5
!!!ODT: 1855/
!!NB: Vocal melody and text only encoded.
!!NB: First instance of melodic material only encoded.
**kern	**silbe
*clef G2	*
*k[f#c#g#d#]	*
*M3/4	*
*MM[andantino]	*
!!andante moderato
!!created: 6/17/03 14:22
!!proofed and posted: 7/21/03 23:31
=6	=6
{4b	{Oh!
2ccn}	viens,}
=7	=7
8r	.
{8ccn	{la
8ddn	fleur
8ccn	de/-
8.b	-ja\
16a	fa-
=8	=8
4ccn	-ne/-
8b}	-e}
8r	.
{[4g#	{Meurt
=9	=9
8g#]	|
8g#	sous
8a	le
8b	re-
(8dd#	-gard
8cc#)	|
=10	=10
8.b	du
16g#	so-
8f#}	-leil,}
8r	.
{4f#	{Et
=11	=11
8f#	de
8f#	tris-
8f#	-tes-
8b	-se
8.b	cou-
16cc#	-ron-
=12	=12
4b	-ne/-
4a}	-e}
8r	.
{8e	{La
=13	=13
8e	ter-
8g#	-re en-
8b	-tre
8ccn	dans
8.b	son
16g#	som-
=14	=14
[2e	-meil.
8e]}	|}
8r	.
=15	=15
4r	.
{4b	{Viens,
8r	.
8b	re^-
=16	=16
8b	-vons
8a	aux
4gn	cho-
8f#	-ses
(16gn	pas-
16a)	|
=17	=17
4b	-se/-
4b}	-es;}
4r	.
=18	=18
{8ccn	{Sous
8ddn	ces
4ee	ar-
8ddn	-bres
8ccn	qui
=19	=19
8.b	vont
16a	fi-
4b}	-nir,}
8r	.
{8b	{Lais-
=20	=20
8cc#	-sons
8ddn	s'ef-
8cc#	-fuil-
8ddn	-ler
8cc#	nos
8ddn	pen-
=21	=21
4ee	-se/-
8ee}	-es}
{8b	{Au
8a	tris-
8gn	-te
=22	=22
4.f#	vent
8f#	du
8.gn	sou-
16f#	-ve-
=23	=23
4f#}	-nir!}
8r	.
{8f#	{Au
8b	tris-
8dd#	-te
=24	=24
4.ee	vent
8a#	du
8b	sou-
8cc#	-ve-
=25	=25
2b}	-nir!}
8r	.
{8b	{Puis
=26	=26
8b	re-
8cc#	-gar-
4ddn	-dant
8.b	no-
16g#	-tre
=27	=27
4f#	vi-
4e}	-e}
8r	.
{8b	{Joy-
=28	=28
(4.a	-eu-
8ee)	|
8.dd#	-se et
16cc#	be/-
=29	=29
4cc#	-ni-
8b}	-e}
8r	.
{8b	{Lors-
8cc#	-que
=30	=30
8b	tout
8a#	et
4g#	tris-
8b	-te a\
8cc#	l'en-
=31	=31
2dd#}	-tour,}
8r	.
{8dd#	{Si
=32	=32
4ff#	plei-
4.a#	-ne
8dd#	d'a-
=33	=33
(4cc#	-mour,
4b)}	|}
4r	.
=34	=34
{8.g#	{A
16a	ge-
(4f#	-noux
4b)	|
=35	=35
8.g#	sur
16a	la
4f#	ter-
4b	-re
=36	=36
8.b	A
16b	ge-
4ee	-noux
8.dd#	sur
16b	la
=37	=37
2cc#	ter-
4b}	-re}
=38	=38
8r	.
{8b	{Nous
8ee	ren-
8dd#	-drons
8cc#	gra^-
8dd#	-ce a\
=39	=39
8b}	Dieu,}
{8g#	{Et
8cc#	nous
8b	lui
8a	fer-
8b	-ons
=40	=40
8g#}	voeu}
{8b	{D'u-
8a	-ne
8g#	dou-
8e	-ble
8a	pri-
=41	=41
(2g#	-e\-
4f#)	|
=42	=42
4e}	-re.}
4r	.
4r	.
*-	*-
